**harm	**harte	**timestamp	**phrase	**leadinstrument	**kern
*M4/4	*M4/4	*	*	*	*
*D-:	*D-:	*	*	*	*D-:
1r;	N	0	.	r	1r;
=1	=1	=1	=1	=1	=1
*>A_intro	*>A_intro	*>A_intro	*>A_intro	*>A_intro	*>A_intro
1V7	A-:7(b13)	0.255	newline	strings	1A- 1cc 1ee- 1gg-
=2	=2	=2	=2	=2	=2
2I	D-:maj	4.327	.	strings	2D- 2f 2a-
2IVm7	G-:7	6.362	.	strings	2G- 2b- 2dd- 2ff
=3	=3	=3	=3	=3	=3
2I	D-:maj	8.398	.	strings	2D- 2f 2a-
2V7	A-:7(b9,b13)	10.433	.	strings	2A- 2cc 2ee- 2gg-
=4	=4	=4	=4	=4	=4
*>B_verse	*>B_verse	*>B_verse	*>B_verse	*>B_verse	*>B_verse
1I7	D-:maj7	12.469	newline	voice	1D- 1f 1a- 1cc
=5	=5	=5	=5	=5	=5
2vio	B-:dim	17.116	.	voice	2B- 2dd- 2ff-
2io	D-:dim	19.439	.	voice	2D- 2f- 2a--
=6	=6	=6	=6	=6	=6
1ii7	E-:min7	21.763	.	voice	1E- 1g- 1b- 1dd-
=7	=7	=7	=7	=7	=7
2V	A-:maj	26.409	.	voice	2A- 2cc 2ee-
2V7	A-:7(b9,b13)	28.733	.	voice	2A- 2cc 2ee- 2gg-
=8	=8	=8	=8	=8	=8
1I7	D-:maj7	31.056	newline	voice	1D- 1f 1a- 1cc
=9	=9	=9	=9	=9	=9
2vio	B-:dim	35.769	.	voice	2B- 2dd- 2ff-
2io	D-:dim	38.125	.	voice	2D- 2f- 2a--
=10	=10	=10	=10	=10	=10
1ii7	E-:min7	40.481	.	voice	1E- 1g- 1b- 1dd-
=11	=11	=11	=11	=11	=11
2V	A-:maj	45.194	.	voice	2A- 2cc 2ee-
2V7	A-:7(b9,b13)	47.551	.	voice	2A- 2cc 2ee- 2gg-
=12	=12	=12	=12	=12	=12
*>B2_verse	*>B2_verse	*>B2_verse	*>B2_verse	*>B2_verse	*>B2_verse
1I7	D-:maj7	49.907	newline	voice	1D- 1f 1a- 1cc
=13	=13	=13	=13	=13	=13
1-VIm7	A:7	54.627	.	voice	1B-- 1dd- 1ff- 1aa-
=14	=14	=14	=14	=14	=14
1ii7	E-:min7	59.347	.	voice	1E- 1g- 1b- 1dd-
=15	=15	=15	=15	=15	=15
1III7	F:7	64.067	.	voice	1F 1a 1cc 1ee-
=16	=16	=16	=16	=16	=16
1vi7	B-:min7	68.787	newline	voice	1B- 1dd- 1ff 1aa-
=17	=17	=17	=17	=17	=17
1II7	E-:7	73.515	.	voice	1E- 1g 1b- 1dd-
=18	=18	=18	=18	=18	=18
1ii7	E-:min7	78.244	.	voice	1E- 1g- 1b- 1dd-
=19	=19	=19	=19	=19	=19
1V7	A-:7	82.973	.	voice	1A- 1cc 1ee- 1gg-
=20	=20	=20	=20	=20	=20
*>C_chorus	*>C_chorus	*>C_chorus	*>C_chorus	*>C_chorus	*>C_chorus
1I7	D-:maj7	87.702	newline	voice	1D- 1f 1a- 1cc
=21	=21	=21	=21	=21	=21
2vio	B-:dim	92.405	.	voice	2B- 2dd- 2ff-
2io	D-:dim	94.756	.	voice	2D- 2f- 2a--
=22	=22	=22	=22	=22	=22
1ii7	E-:min7	97.108	.	voice	1E- 1g- 1b- 1dd-
=23	=23	=23	=23	=23	=23
2V	A-:maj	101.811	.	voice	2A- 2cc 2ee-
2V7	A-:7(b9,b13)	104.162	.	voice	2A- 2cc 2ee- 2gg-
=24	=24	=24	=24	=24	=24
1I	D-:maj	106.514	newline	voice	1D- 1f 1a-
=25	=25	=25	=25	=25	=25
1I+	D-:aug	111.291	.	voice	1D- 1f 1a
=26	=26	=26	=26	=26	=26
1IV7	G-:maj7	116.068	.	voice	1G- 1b- 1dd- 1ff
=27	=27	=27	=27	=27	=27
1IV	G-:maj6	120.845	.	voice	1G- 1b- 1dd-
=28	=28	=28	=28	=28	=28
1IV	G-:maj6	125.622	newline	voice	1G- 1b- 1dd-
=29	=29	=29	=29	=29	=29
1-VIIm7	C-:9	130.473	.	voice	1C- 1e- 1g- 1b-
=30	=30	=30	=30	=30	=30
1I7	D-:maj9	135.323	.	voice	1D- 1f 1a- 1cc
=31	=31	=31	=31	=31	=31
2iii7	F:min7	140.174	.	voice	2F 2a- 2cc 2ee-
2VI7	B-:7(b9)	142.599	.	voice	2B- 2dd 2ff 2aa-
=32	=32	=32	=32	=32	=32
1ii7	E-:min7	145.025	newline	voice	1E- 1g- 1b- 1dd-
=33	=33	=33	=33	=33	=33
1V7	A-:7(b13)	149.867	.	voice	1A- 1cc 1ee- 1gg-
=34	=34	=34	=34	=34	=34
*>A2_outro	*>A2_outro	*>A2_outro	*>A2_outro	*>A2_outro	*>A2_outro
2I7	D-:maj7	154.71	newline	voice	2D- 2f 2a- 2cc
2IVm7	G-:7	157.003	.	voice	2G- 2b- 2dd- 2ff
=35	=35	=35	=35	=35	=35
2I	D-:maj	159.295	.	voice	2D- 2f 2a-
2V7	A-:7(b9,b13)	161.588	.	voice	2A- 2cc 2ee- 2gg-
1r;	N	163.881	.	r	1r;
=36	=36	=36	=36	=36	=36
1I7	D-:maj9	168.466	newline	voice	1D- 1f 1a- 1cc
1r;	N	175.473	.	r	1r;
1r;	N	177.633	.	r	1r;
*-	*-	*-	*-	*-	*-
!!!OTL: Fool That I Am
!!!COC: Etta James
!!!BillboardChartDate: 1961/07/03, 1961/07/10
!!!BillboardPeak: 50, 50
!!!BillboardWeeksOnChart: 6, 6
!!!SampleTargetRank: 51, 56
!!!SampleActualRank: 50, 54
!!!SampleID#: 515, 562
!!!RDF**harmony: **recip + pitch class of root + harmonic quality
!!!RDF**harte: Chris Harte's syntax, used by MIREX
!!!RDF**phrase: newline = linebreak in original McGill transcription
!!!RDF**timestamp: McGill audio timestamp in seconds
!!!RDF**leadinstrument: original McGill primary instrumentation annotation
!!!RDT: 2017/01/12/
!!!ENC: Nathaniel Condit-Schultz
!!!EST: Awating manual error checking and editing.
